assets/observable/original.svg

<svg viewBox="0 0 24 24" xmlns="http://www.w3.org/2000/svg" fill="#353E58"><path d="m12 20c-1.065 0-1.988-.232-2.77-.696a4.7 4.7 0 0 1 -1.794-1.89 9.97 9.97 0 0 1 -.916-2.53 13.613 13.613 0 0 1 -.29-2.884c0-.766.05-1.499.152-2.2.1-.699.285-1.41.556-2.132a6.803 6.803 0 0 1 1.042-1.878 4.725 4.725 0 0 1 1.668-1.293c.689-.332 1.472-.497 2.352-.497 1.065 0 1.988.232 2.77.696a4.7 4.7 0 0 1 1.794 1.89c.418.795.723 1.639.916 2.53.192.891.29 1.853.29 2.884 0 .766-.05 1.499-.152 2.2a9.812 9.812 0 0 1 -.567 2.132 7.226 7.226 0 0 1 -1.042 1.878c-.418.53-.97.962-1.657 1.293-.688.332-1.471.497-2.352.497zm2.037-5.882c.551-.554.858-1.32.848-2.118 0-.824-.276-1.53-.827-2.118-.552-.588-1.238-.882-2.058-.882s-1.506.294-2.058.882a2.987 2.987 0 0 0 -.827 2.118c0 .824.276 1.53.827 2.118.552.588 1.238.882 2.058.882s1.5-.294 2.037-.882zm-2.037 9.882c6.372 0 11.538-5.373 11.538-12s-5.166-12-11.538-12-11.538 5.373-11.538 12 5.166 12 11.538 12z"/></svg>

<svg xmlns="http://www.w3.org/2000/svg" fill="#353e58" viewBox="0 0 24 24"><path d="M12 20q-1.597 0-2.77-.696a4.7 4.7 0 0 1-1.794-1.89 10 10 0 0 1-.916-2.53A13.6 13.6 0 0 1 6.23 12q0-1.149.152-2.2.15-1.049.556-2.132A6.8 6.8 0 0 1 7.98 5.79a4.7 4.7 0 0 1 1.668-1.293Q10.681 4 12 4q1.597 0 2.77.696a4.7 4.7 0 0 1 1.794 1.89q.627 1.193.916 2.53T17.77 12q0 1.149-.152 2.2a9.8 9.8 0 0 1-.567 2.132 7.2 7.2 0 0 1-1.042 1.878q-.627.796-1.657 1.293T12 20m2.037-5.882c.551-.554.858-1.32.848-2.118q0-1.236-.827-2.118Q13.23 9 12 9c-1.23 0-1.506.294-2.058.882A2.99 2.99 0 0 0 9.115 12q0 1.236.827 2.118Q10.77 15 12 15c1.23 0 1.5-.294 2.037-.882M12 24c6.372 0 11.538-5.373 11.538-12S18.372 0 12 0 .462 5.373.462 12 5.628 24 12 24"/></svg>
